X:201
T:Calais Packet TS.201
T:Hunting the Hare,aka TS.201
M:6/8
L:1/8
Q:3/8=120
S:Thomas Sands’ MS,1810,Lincolnshire
R:jig
O:England;Lincolnshire
C:In different hand B
Z:vmp.Ruairidh Greig, 2011
K:C
c2C EFG|Adc BAG|c2C EFG|AdB”undotted in ms”c3:|
|:edc edc|edc edc|dBc dBc|dfe”D.C.””undotted in ms”d3|]

